app/assets/img/shared/nav-menu04.svg

<svg width="76" height="24" viewBox="0 0 76 24" fill="none" xmlns="http://www.w3.org/2000/svg">
<path d="M0.8 23V0.544999H5.45V8.81C6.01 8.33 6.615 7.945 7.265 7.655C7.925 7.355 8.71 7.205 9.62 7.205C10.47 7.205 11.22 7.355 11.87 7.655C12.53 7.945 13.085 8.355 13.535 8.885C13.985 9.405 14.325 10.03 14.555 10.76C14.785 11.48 14.9 12.265 14.9 13.115V23H10.25V13.115C10.25 12.355 10.075 11.765 9.725 11.345C9.375 10.915 8.86 10.7 8.18 10.7C7.67 10.7 7.19 10.81 6.74 11.03C6.29 11.25 5.86 11.545 5.45 11.915V23H0.8ZM25.4323 7.205C26.6123 7.205 27.6873 7.39 28.6573 7.76C29.6273 8.13 30.4573 8.66 31.1473 9.35C31.8473 10.04 32.3873 10.88 32.7673 11.87C33.1573 12.85 33.3523 13.955 33.3523 15.185C33.3523 16.425 33.1573 17.545 32.7673 18.545C32.3873 19.535 31.8473 20.38 31.1473 21.08C30.4573 21.77 29.6273 22.305 28.6573 22.685C27.6873 23.055 26.6123 23.24 25.4323 23.24C24.2423 23.24 23.1573 23.055 22.1773 22.685C21.2073 22.305 20.3673 21.77 19.6573 21.08C18.9573 20.38 18.4123 19.535 18.0223 18.545C17.6423 17.545 17.4523 16.425 17.4523 15.185C17.4523 13.955 17.6423 12.85 18.0223 11.87C18.4123 10.88 18.9573 10.04 19.6573 9.35C20.3673 8.66 21.2073 8.13 22.1773 7.76C23.1573 7.39 24.2423 7.205 25.4323 7.205ZM25.4323 19.79C26.5023 19.79 27.2873 19.415 27.7873 18.665C28.2973 17.905 28.5523 16.755 28.5523 15.215C28.5523 13.675 28.2973 12.53 27.7873 11.78C27.2873 11.03 26.5023 10.655 25.4323 10.655C24.3323 10.655 23.5273 11.03 23.0173 11.78C22.5073 12.53 22.2523 13.675 22.2523 15.215C22.2523 16.755 22.5073 17.905 23.0173 18.665C23.5273 19.415 24.3323 19.79 25.4323 19.79ZM36.2047 23V7.445H39.0847C39.3747 7.445 39.6147 7.51 39.8047 7.64C40.0047 7.77 40.1447 7.965 40.2247 8.225L40.4797 9.065C40.7397 8.795 41.0097 8.55 41.2897 8.33C41.5697 8.1 41.8697 7.905 42.1897 7.745C42.5197 7.575 42.8697 7.445 43.2397 7.355C43.6197 7.255 44.0347 7.205 44.4847 7.205C45.4247 7.205 46.1997 7.45 46.8097 7.94C47.4297 8.42 47.8997 9.065 48.2197 9.875C48.4797 9.395 48.7947 8.985 49.1647 8.645C49.5447 8.305 49.9497 8.03 50.3797 7.82C50.8197 7.61 51.2797 7.455 51.7597 7.355C52.2497 7.255 52.7347 7.205 53.2147 7.205C54.1047 7.205 54.8947 7.34 55.5847 7.61C56.2747 7.87 56.8497 8.255 57.3097 8.765C57.7797 9.265 58.1347 9.885 58.3747 10.625C58.6147 11.355 58.7347 12.185 58.7347 13.115V23H54.0847V13.115C54.0847 11.505 53.3947 10.7 52.0147 10.7C51.3847 10.7 50.8597 10.91 50.4397 11.33C50.0297 11.74 49.8247 12.335 49.8247 13.115V23H45.1747V13.115C45.1747 12.225 44.9997 11.6 44.6497 11.24C44.2997 10.88 43.7847 10.7 43.1047 10.7C42.6847 10.7 42.2847 10.795 41.9047 10.985C41.5347 11.175 41.1847 11.43 40.8547 11.75V23H36.2047ZM69.0045 7.205C70.0345 7.205 70.9745 7.365 71.8245 7.685C72.6845 8.005 73.4195 8.47 74.0295 9.08C74.6495 9.69 75.1295 10.44 75.4695 11.33C75.8195 12.21 75.9945 13.21 75.9945 14.33C75.9945 14.68 75.9795 14.965 75.9495 15.185C75.9195 15.405 75.8645 15.58 75.7845 15.71C75.7045 15.84 75.5945 15.93 75.4545 15.98C75.3245 16.03 75.1545 16.055 74.9445 16.055H65.9745C66.1245 17.355 66.5195 18.3 67.1595 18.89C67.7995 19.47 68.6245 19.76 69.6345 19.76C70.1745 19.76 70.6395 19.695 71.0295 19.565C71.4195 19.435 71.7645 19.29 72.0645 19.13C72.3745 18.97 72.6545 18.825 72.9045 18.695C73.1645 18.565 73.4345 18.5 73.7145 18.5C74.0845 18.5 74.3645 18.635 74.5545 18.905L75.9045 20.57C75.4245 21.12 74.9045 21.57 74.3445 21.92C73.7945 22.26 73.2245 22.53 72.6345 22.73C72.0545 22.92 71.4695 23.05 70.8795 23.12C70.2995 23.2 69.7445 23.24 69.2145 23.24C68.1245 23.24 67.0995 23.065 66.1395 22.715C65.1895 22.355 64.3545 21.825 63.6345 21.125C62.9245 20.425 62.3595 19.555 61.9395 18.515C61.5295 17.475 61.3245 16.265 61.3245 14.885C61.3245 13.845 61.4995 12.86 61.8495 11.93C62.2095 11 62.7195 10.185 63.3795 9.485C64.0495 8.785 64.8545 8.23 65.7945 7.82C66.7445 7.41 67.8145 7.205 69.0045 7.205ZM69.0945 10.415C68.2045 10.415 67.5095 10.67 67.0095 11.18C66.5095 11.68 66.1795 12.405 66.0195 13.355H71.8245C71.8245 12.985 71.7745 12.625 71.6745 12.275C71.5845 11.925 71.4295 11.615 71.2095 11.345C70.9995 11.065 70.7195 10.84 70.3695 10.67C70.0195 10.5 69.5945 10.415 69.0945 10.415Z" fill="#121111"/>
</svg>

<svg fill="none" height="24" viewBox="0 0 76 24" width="76" xmlns="http://www.w3.org/2000/svg"><path d="m.8 23v-22.455001h4.65v8.265001c.56-.48 1.165-.865 1.815-1.155.66-.3 1.445-.45 2.355-.45.85 0 1.6.15 2.25.45.66.29 1.215.7 1.665 1.23.45.52.79 1.145 1.02 1.875.23.72.345 1.505.345 2.355v9.885h-4.65v-9.885c0-.76-.175-1.35-.525-1.77-.35-.43-.865-.645-1.545-.645-.51 0-.99.11-1.44.33s-.88.515-1.29.885v11.085zm24.6323-15.795c1.18 0 2.255.185 3.225.555s1.8.9 2.49 1.59c.7.69 1.24 1.53 1.62 2.52.39.98.585 2.085.585 3.315 0 1.24-.195 2.36-.585 3.36-.38.99-.92 1.835-1.62 2.535-.69.69-1.52 1.225-2.49 1.605-.97.37-2.045.555-3.225.555-1.19 0-2.275-.185-3.255-.555-.97-.38-1.81-.915-2.52-1.605-.7-.7-1.245-1.545-1.635-2.535-.38-1-.57-2.12-.57-3.36 0-1.23.19-2.335.57-3.315.39-.99.935-1.83 1.635-2.52.71-.69 1.55-1.22 2.52-1.59.98-.37 2.065-.555 3.255-.555zm0 12.585c1.07 0 1.855-.375 2.355-1.125.51-.76.765-1.91.765-3.45s-.255-2.685-.765-3.435c-.5-.75-1.285-1.125-2.355-1.125-1.1 0-1.905.375-2.415 1.125s-.765 1.895-.765 3.435.255 2.69.765 3.45c.51.75 1.315 1.125 2.415 1.125zm10.7724 3.21v-15.555h2.88c.29 0 .53.065.72.195.2.13.34.325.42.585l.255.84c.26-.27.53-.515.81-.735.28-.23.58-.425.9-.585.33-.17.68-.3 1.05-.39.38-.1.795-.15 1.245-.15.94 0 1.715.245 2.325.735.62.48 1.09 1.125 1.41 1.935.26-.48.575-.89.945-1.23.38-.34.785-.615 1.215-.825.44-.21.9-.365 1.38-.465.49-.1.975-.15 1.455-.15.89 0 1.68.135 2.37.405.69.26 1.265.645 1.725 1.155.47.5.825 1.12 1.065 1.86.24.73.36 1.56.36 2.49v9.885h-4.65v-9.885c0-1.61-.69-2.415-2.07-2.415-.63 0-1.155.21-1.575.63-.41.41-.615 1.005-.615 1.785v9.885h-4.65v-9.885c0-.89-.175-1.515-.525-1.875s-.865-.54-1.545-.54c-.42 0-.82.095-1.2.285-.37.19-.72.445-1.05.765v11.25zm32.7998-15.795c1.03 0 1.97.16 2.82.48.86.32 1.595.785 2.205 1.395.62.61 1.1 1.36 1.44 2.25.35.88.525 1.88.525 3 0 .35-.015.635-.045.855s-.085.395-.165.525-.19.22-.33.27c-.13.05-.3.075-.51.075h-8.97c.15 1.3.545 2.245 1.185 2.835.64.58 1.465.87 2.475.87.54 0 1.005-.065 1.395-.195s.735-.275 1.035-.435c.31-.16.59-.305.84-.435.26-.13.53-.195.81-.195.37 0 .65.135.84.405l1.35 1.665c-.48.55-1 1-1.56 1.35-.55.34-1.12.61-1.71.81-.58.19-1.165.32-1.755.39-.58.08-1.135.12-1.665.12-1.09 0-2.115-.175-3.075-.525-.95-.36-1.785-.89-2.505-1.59-.71-.7-1.275-1.57-1.695-2.61-.41-1.04-.615-2.25-.615-3.63 0-1.04.175-2.025.525-2.955.36-.93.87-1.745 1.53-2.445.67-.7 1.475-1.255 2.415-1.665.95-.41 2.02-.615 3.21-.615zm.09 3.21c-.89 0-1.585.255-2.085.765-.5.5-.83 1.225-.99 2.175h5.805c0-.37-.05-.73-.15-1.08-.09-.35-.245-.66-.465-.93-.21-.28-.49-.505-.84-.675s-.775-.255-1.275-.255z" fill="#121111"/></svg>
